src/pos-icons/vector-polyline-minus.svg

<svg height="24" viewBox="0 0 24 24" width="24" xmlns="http://www.w3.org/2000/svg"><path d="m2 3v6h2.95l2 6h-.95v6h6v-4.59l5.41-5.41h4.59v-6h-6v4.57l-5.41 5.43h-1.53l-2-6h.94v-6zm2 2h2v2h-2zm14 2h2v2h-2zm-10 10h2v2h-2zm7 1v2h8v-2z"/></svg>

<?xml version="1.0" encoding="UTF-8"?><!DOCTYPE svg PUBLIC "-//W3C//DTD SVG 1.1//EN" "http://www.w3.org/Graphics/SVG/1.1/DTD/svg11.dtd"><svg xmlns="http://www.w3.org/2000/svg" xmlns:xlink="http://www.w3.org/1999/xlink" version="1.1" id="mdi-vector-polyline-minus" width="24" height="24" viewBox="0 0 24 24"><path d="M2 3V9H4.95L6.95 15H6V21H12V16.41L17.41 11H22V5H16V9.57L10.59 15H9.06L7.06 9H8V3H2M4 5H6V7H4V5M18 7H20V9H18V7M8 17H10V19H8V17M15 18V20H23V18H15Z" /></svg>
